app/images/dist/chart.svg

<svg width="48" height="48" viewBox="0 0 48 48" fill="none" xmlns="http://www.w3.org/2000/svg">
<path d="M42 6L28 18L20 10L6 22M9 42C7.34314 42 6 40.6568 6 39V35C6 33.3432 7.34314 32 9 32C10.6569 32 12 33.3432 12 35V39C12 40.6568 10.6569 42 9 42ZM23 42C21.3432 42 20 40.6568 20 39V29C20 27.3432 21.3432 26 23 26C24.6568 26 26 27.3432 26 29V39C26 40.6568 24.6568 42 23 42ZM37 42C35.3432 42 34 40.6568 34 39V33C34 31.3432 35.3432 30 37 30C38.6568 30 40 31.3432 40 33V39C40 40.6568 38.6568 42 37 42Z" stroke="#DC143C" stroke-width="1.5" stroke-linecap="round" stroke-linejoin="round"/>
</svg>

<svg width="48" height="48" fill="none" xmlns="http://www.w3.org/2000/svg"><path d="M42 6 28 18l-8-8L6 22m3 20a3 3 0 0 1-3-3v-4a3 3 0 0 1 6 0v4a3 3 0 0 1-3 3Zm14 0a3 3 0 0 1-3-3V29a3 3 0 0 1 6 0v10a3 3 0 0 1-3 3Zm14 0a3 3 0 0 1-3-3v-6a3 3 0 0 1 6 0v6a3 3 0 0 1-3 3Z" stroke="#DC143C" stroke-width="1.5" stroke-linecap="round" stroke-linejoin="round"/></svg>
